images/logo_google.svg

<svg width="80" height="49" fill="none" xmlns="http://www.w3.org/2000/svg"><path d="M19.6976 23.2574h-9.2453v2.7317h6.5518c-.3276 3.8609-3.5307 5.5-6.5518 5.5-3.85834 0-7.24345-3.0596-7.24345-7.3212 0-4.1522 3.20312-7.3575 7.24345-7.3575 3.0939 0 4.9502 1.9668 4.9502 1.9668l1.9292-2.0033s-2.4751-2.7317-6.9522-2.7317C4.66481 14.0786.224121 18.9229.224121 24.1315c0 5.1358 4.149499 10.1258 10.300979 10.1258 5.387 0 9.3545-3.7152 9.3545-9.1788 0-1.1655-.182-1.8211-.182-1.8211Zm7.5711-1.9669c-3.7856 0-6.5155 2.9503-6.5155 6.447 0 3.4966 2.6208 6.5198 6.5519 6.5198 3.5307 0 6.4426-2.7318 6.4426-6.447.0364-4.3344-3.3487-6.5198-6.479-6.5198Zm.0364 2.5496c1.8563 0 3.6399 1.4934 3.6399 3.9338 0 2.3675-1.7472 3.9337-3.6399 3.9337-2.0748 0-3.7128-1.639-3.7128-3.9337 0-2.2583 1.638-3.9338 3.7128-3.9338Zm14.1228-2.5496c-3.7855 0-6.5154 2.9503-6.5154 6.447 0 3.4966 2.6207 6.5198 6.5518 6.5198 3.5307 0 6.4426-2.7318 6.4426-6.447.0364-4.3344-3.3487-6.5198-6.479-6.5198Zm.0364 2.5496c1.8564 0 3.6399 1.4934 3.6399 3.9338 0 2.3675-1.7471 3.9337-3.6399 3.9337-2.0747 0-3.7127-1.639-3.7127-3.9337.0364-2.2583 1.638-3.9338 3.7127-3.9338Zm13.8681-2.5496c-3.4944 0-6.2243 3.0596-6.2243 6.4834 0 3.8973 3.1667 6.4834 6.1515 6.4834 1.8563 0 2.8391-.7285 3.5671-1.5662v1.2748c0 2.2218-1.3468 3.5695-3.4215 3.5695-1.9656 0-2.9848-1.4569-3.3124-2.2947l-2.4751 1.0563c.8736 1.8576 2.6571 3.8245 5.8239 3.8245 3.4579 0 6.115-2.1854 6.115-6.7748V21.6911h-2.7299v1.0927c-.8372-.9105-1.9656-1.4933-3.4943-1.4933Zm.2548 2.5496c1.7107 0 3.4579 1.457 3.4579 3.9338 0 2.5496-1.7472 3.9337-3.4943 3.9337-1.8564 0-3.5672-1.4933-3.5672-3.8973-.0364-2.5132 1.7836-3.9702 3.6036-3.9702Zm18.0175-2.586c-3.2759 0-6.0422 2.6225-6.0422 6.4834 0 4.0794 3.0575 6.5198 6.3698 6.5198 2.7299 0 4.4407-1.4934 5.4235-2.8411l-2.2568-1.4933c-.5824.9106-1.5651 1.7847-3.1667 1.7847-1.8199 0-2.6571-.9834-3.1667-1.9668l8.6994-3.606-.4368-1.0563c-.8736-2.0761-2.8392-3.8244-5.4235-3.8244Zm.1092 2.5132c1.2012 0 2.0384.6192 2.4023 1.3841l-5.7874 2.4404c-.2548-1.8941 1.5288-3.8245 3.3851-3.8245ZM63.4494 33.8566h2.8391v-19.086h-2.8391v19.086Z" fill="#fff"/></svg>

<svg width="80" height="49" viewBox="0 0 80 49" fill="none" xmlns="http://www.w3.org/2000/svg">
<path d="M19.6976 23.2574H10.4523V25.9891H17.0041C16.6765 29.85 13.4734 31.4891 10.4523 31.4891C6.59396 31.4891 3.20885 28.4295 3.20885 24.1679C3.20885 20.0157 6.41197 16.8104 10.4523 16.8104C13.5462 16.8104 15.4025 18.7772 15.4025 18.7772L17.3317 16.7739C17.3317 16.7739 14.8566 14.0422 10.3795 14.0422C4.66481 14.0786 0.224121 18.9229 0.224121 24.1315C0.224121 29.2673 4.37362 34.2573 10.5251 34.2573C15.9121 34.2573 19.8796 30.5421 19.8796 25.0785C19.8796 23.913 19.6976 23.2574 19.6976 23.2574ZM27.2687 21.2905C23.4831 21.2905 20.7532 24.2408 20.7532 27.7375C20.7532 31.2341 23.374 34.2573 27.3051 34.2573C30.8358 34.2573 33.7477 31.5255 33.7477 27.8103C33.7841 23.4759 30.399 21.2905 27.2687 21.2905ZM27.3051 23.8401C29.1614 23.8401 30.945 25.3335 30.945 27.7739C30.945 30.1414 29.1978 31.7076 27.3051 31.7076C25.2303 31.7076 23.5923 30.0686 23.5923 27.7739C23.5923 25.5156 25.2303 23.8401 27.3051 23.8401ZM41.4279 21.2905C37.6424 21.2905 34.9125 24.2408 34.9125 27.7375C34.9125 31.2341 37.5332 34.2573 41.4643 34.2573C44.995 34.2573 47.9069 31.5255 47.9069 27.8103C47.9433 23.4759 44.5582 21.2905 41.4279 21.2905ZM41.4643 23.8401C43.3207 23.8401 45.1042 25.3335 45.1042 27.7739C45.1042 30.1414 43.3571 31.7076 41.4643 31.7076C39.3896 31.7076 37.7516 30.0686 37.7516 27.7739C37.788 25.5156 39.3896 23.8401 41.4643 23.8401ZM55.3324 21.2905C51.838 21.2905 49.1081 24.3501 49.1081 27.7739C49.1081 31.6712 52.2748 34.2573 55.2596 34.2573C57.1159 34.2573 58.0987 33.5288 58.8267 32.6911V33.9659C58.8267 36.1877 57.4799 37.5354 55.4052 37.5354C53.4396 37.5354 52.4204 36.0785 52.0928 35.2407L49.6177 36.297C50.4913 38.1546 52.2748 40.1215 55.4416 40.1215C58.8995 40.1215 61.5566 37.9361 61.5566 33.3467V21.6911H58.8267V22.7838C57.9895 21.8733 56.8611 21.2905 55.3324 21.2905ZM55.5872 23.8401C57.2979 23.8401 59.0451 25.2971 59.0451 27.7739C59.0451 30.3235 57.2979 31.7076 55.5508 31.7076C53.6944 31.7076 51.9836 30.2143 51.9836 27.8103C51.9472 25.2971 53.7672 23.8401 55.5872 23.8401ZM73.6047 21.2541C70.3288 21.2541 67.5625 23.8766 67.5625 27.7375C67.5625 31.8169 70.62 34.2573 73.9323 34.2573C76.6622 34.2573 78.373 32.7639 79.3558 31.4162L77.099 29.9229C76.5166 30.8335 75.5339 31.7076 73.9323 31.7076C72.1124 31.7076 71.2752 30.7242 70.7656 29.7408L79.465 26.1348L79.0282 25.0785C78.1546 23.0024 76.189 21.2541 73.6047 21.2541ZM73.7139 23.7673C74.9151 23.7673 75.7523 24.3865 76.1162 25.1514L70.3288 27.5918C70.074 25.6977 71.8576 23.7673 73.7139 23.7673ZM63.4494 33.8566H66.2885V14.7706H63.4494V33.8566Z" fill="white"/>
</svg>
